X: 2
T: Bruno
R: reel
M: 4/4
L: 1/8
K: Gmaj
z4 z D GA|:SBA GA GF GF|EE/F/ D4 GA|BA Gc BA dd/e/|B4B D GA|
BA GA GF GF|EE/F/ D4 D2|Ec AG FD BA|1 G4G D GA/G/:|2 G7 d||
e2 gf e4|d2 ed Bd GB|cA dc AD GA/G/|B6 d2|
ec gf eG ce|dG ed BD GB|cA dc AD BA|1 G7 D:|2 G4 z D GA||

